polaris-icons/icons/new-icons/UnfulfilledMajor.svg

<svg width="20" height="20" viewBox="0 0 20 20" fill="none" xmlns="http://www.w3.org/2000/svg">
<path d="M12.5303 4.78033C12.8232 4.48744 12.8232 4.01256 12.5303 3.71967C12.2374 3.42678 11.7626 3.42678 11.4697 3.71967L10 5.18934L8.53033 3.71967C8.23744 3.42678 7.76256 3.42678 7.46967 3.71967C7.17678 4.01256 7.17678 4.48744 7.46967 4.78033L8.93934 6.25L7.46967 7.71967C7.17678 8.01256 7.17678 8.48744 7.46967 8.78033C7.76256 9.07322 8.23744 9.07322 8.53033 8.78033L10 7.31066L11.4697 8.78033C11.7626 9.07322 12.2374 9.07322 12.5303 8.78033C12.8232 8.48744 12.8232 8.01256 12.5303 7.71967L11.0607 6.25L12.5303 4.78033Z" fill="#4A4A4A"/>
<path fill-rule="evenodd" clip-rule="evenodd" d="M14.8437 10L14.5081 7.73501C14.4474 7.32527 14.7303 6.9439 15.1401 6.8832C15.5498 6.8225 15.9312 7.10545 15.9919 7.51519L16.4055 10.3072C16.4684 10.7317 16.5 11.1603 16.5 11.5895V13.2501C16.5 15.045 15.0449 16.5001 13.25 16.5001H6.75C4.95507 16.5001 3.5 15.045 3.5 13.2501V11.5895C3.5 11.1603 3.53158 10.7317 3.59447 10.3072L4.0081 7.51519C4.0688 7.10545 4.45017 6.8225 4.85991 6.8832C5.26965 6.9439 5.55261 7.32527 5.4919 7.73501L5.15635 10H7.63962C8.17766 10 8.65533 10.3443 8.82547 10.8547L8.98359 11.3291C9.01762 11.4311 9.11315 11.5 9.22076 11.5H10.7792C10.8868 11.5 10.9824 11.4311 11.0164 11.3291L11.1745 10.8547C11.3447 10.3443 11.8223 10 12.3604 10H14.8437ZM5.00055 11.5C5.00018 11.5298 5 11.5596 5 11.5895V13.2501C5 14.2166 5.7835 15.0001 6.75 15.0001H13.25C14.2165 15.0001 15 14.2166 15 13.2501V11.5895C15 11.5596 14.9998 11.5298 14.9994 11.5H12.5406L12.4394 11.8034C12.2012 12.518 11.5325 13 10.7792 13H9.22076C8.46751 13 7.79876 12.518 7.56056 11.8034L7.45943 11.5H5.00055Z" fill="#4A4A4A"/>
</svg>

<svg viewBox="0 0 20 20" xmlns="http://www.w3.org/2000/svg"><path d="M12.53 4.78a.75.75 0 0 0-1.06-1.06l-1.47 1.47-1.47-1.47a.75.75 0 0 0-1.06 1.06l1.47 1.47-1.47 1.47a.75.75 0 0 0 1.06 1.06l1.47-1.47 1.47 1.47a.75.75 0 1 0 1.06-1.06l-1.47-1.47 1.47-1.47Z" fill="#5C5F62"/><path fill-rule="evenodd" d="m14.844 10-.336-2.265a.75.75 0 1 1 1.484-.22l.413 2.792c.063.425.095.853.095 1.282v1.661a3.25 3.25 0 0 1-3.25 3.25h-6.5a3.25 3.25 0 0 1-3.25-3.25v-1.66c0-.43.032-.858.094-1.283l.414-2.792a.75.75 0 0 1 1.484.22l-.336 2.265h2.484a1.25 1.25 0 0 1 1.185.855l.159.474a.25.25 0 0 0 .237.171h1.558a.25.25 0 0 0 .237-.17l.159-.475a1.25 1.25 0 0 1 1.185-.855h2.484Zm-9.843 1.5-.001.09v1.66c0 .967.784 1.75 1.75 1.75h6.5a1.75 1.75 0 0 0 1.75-1.75v-1.75h-2.46l-.1.303a1.75 1.75 0 0 1-1.66 1.197h-1.56a1.75 1.75 0 0 1-1.66-1.197l-.1-.303h-2.46Z" fill="#5C5F62"/></svg>
